Extensions/System/Backend/Resources/Public/Css/flags/1x1/fo.svg

<?xml version="1.0" encoding="UTF-8" standalone="no"?>
<!-- Created with Sodipodi ("http://www.sodipodi.com/") -->
<!-- /Creative Commons Public Domain -->
<!--
<rdf:RDF xmlns="http://web.resource.org/cc/"
    xmlns:dc="http://purl.org/dc/elements/1.1/"
    xmlns:rdf="http://www.w3.org/1999/02/22-rdf-syntax-ns#">
<Work rdf:about="">
   <dc:title>SVG image of Aaland and Faore flags</dc:title>
   <dc:rights><Agent>
      <dc:title>Christian Schaller</dc:title>
   </Agent></dc:rights>
   <license rdf:resource="http://web.resource.org/cc/PublicDomain" />
</Work>

<License rdf:about="http://web.resource.org/cc/PublicDomain">
   <permits rdf:resource="http://web.resource.org/cc/Reproduction" />
   <permits rdf:resource="http://web.resource.org/cc/Distribution" />
   <permits rdf:resource="http://web.resource.org/cc/DerivativeWorks" />
</License>
</rdf:RDF>
-->
<svg id="islenskifaninn" xmlns:rdf="http://www.w3.org/1999/02/22-rdf-syntax-ns#" xmlns="http://www.w3.org/2000/svg" height="512" width="512" version="1" y="0" x="0" xmlns:cc="http://creativecommons.org/ns#" xmlns:dc="http://purl.org/dc/elements/1.1/">
 <metadata id="metadata3168">
  <rdf:RDF>
   <cc:Work rdf:about="">
    <dc:format>image/svg+xml</dc:format>
    <dc:type rdf:resource="http://purl.org/dc/dcmitype/StillImage"/>
   </cc:Work>
  </rdf:RDF>
 </metadata>
 <defs id="defs380">
  <clipPath id="clipPath3016" clipPathUnits="userSpaceOnUse">
   <rect id="rect3018" fill-opacity="0.67" height="512" width="512" y="0" x="0"/>
  </clipPath>
 </defs>
 <g id="flag" clip-path="url(#clipPath3016)" fill-rule="evenodd" stroke-width="0pt">
  <rect id="blarfeldur" height="512" width="708.18" y="0" x="-78.015" fill="#fff"/>
  <path id="hviturkross" d="m-75.901 199.11h198.29v-199.11h113.31v199.11h396.58v113.78h-396.58v199.11h-113.31v-199.11h-198.29v-113.78z" fill="#003897"/>
  <path id="raudurkross" d="m-75.901 227.56h226.62v-227.56h56.654v227.56h424.91v56.889h-424.91v227.56h-56.654v-227.56h-226.62v-56.889z" fill="#d72828"/>
 </g>
</svg>

<?xml version="1.0" encoding="UTF-8" standalone="no"?>
<svg xmlns="http://www.w3.org/2000/svg" height="512" width="512" version="1">
  <defs>
    <clipPath id="a">
      <path fill-opacity=".67" d="M0 0h512v512H0z"/>
    </clipPath>
  </defs>
  <g clip-path="url(#a)" fill-rule="evenodd" stroke-width="0">
    <path fill="#fff" d="M-78.015 0h708.18v512h-708.18z"/>
    <path d="M-75.9 199.11h198.29V0H235.7v199.11h396.58v113.78H235.7V512H122.39V312.89H-75.9V199.11z" fill="#003897"/>
    <path d="M-75.9 227.56h226.62V0h56.653v227.56h424.91v56.89h-424.91v227.56H150.72V284.45H-75.9v-56.89z" fill="#d72828"/>
  </g>
</svg>
